X: 39732
T: Thadelo's
R: barndance
M: 4/4
K: Amajor
c2 cc cBAB|cBAF E2 E2|A2 A2 B2 AB|c2 B2 B2 AB|
c2 cc cBAB|cBAF E2 E2|A2 A2 B2 AB|1 c2 B2 A3B:|2 c2 B2 A4||
ce2 c e2 e2|fa2 ga2 af|e2 ef ecAB|c2 B2 B2 AB|
ce2 c e2 e2|fa2 ga2 af|e2 ef ecAB|c2 B2 A4:|

